ix/house_linear.svg

<svg viewBox="0 0 24 24" fill="none" xmlns="http://www.w3.org/2000/svg" height="1em" width="1em">
  <path d="M2 22H22" stroke="#292D32" stroke-width="1.5" stroke-miterlimit="10" stroke-linecap="round" stroke-linejoin="round"/>
  <path d="M2.94995 22L2.99995 9.96999C2.99995 9.35999 3.28995 8.78004 3.76995 8.40004L10.77 2.95003C11.49 2.39003 12.4999 2.39003 13.2299 2.95003L20.23 8.39003C20.72 8.77003 21 9.34999 21 9.96999V22" stroke="#292D32" stroke-width="1.5" stroke-miterlimit="10" stroke-linejoin="round"/>
  <path d="M13 17H11C10.17 17 9.5 17.67 9.5 18.5V22H14.5V18.5C14.5 17.67 13.83 17 13 17Z" stroke="#292D32" stroke-width="1.5" stroke-miterlimit="10" stroke-linejoin="round"/>
  <path d="M9.5 13.75H7.5C6.95 13.75 6.5 13.3 6.5 12.75V11.25C6.5 10.7 6.95 10.25 7.5 10.25H9.5C10.05 10.25 10.5 10.7 10.5 11.25V12.75C10.5 13.3 10.05 13.75 9.5 13.75Z" stroke="#292D32" stroke-width="1.5" stroke-miterlimit="10" stroke-linejoin="round"/>
  <path d="M16.5 13.75H14.5C13.95 13.75 13.5 13.3 13.5 12.75V11.25C13.5 10.7 13.95 10.25 14.5 10.25H16.5C17.05 10.25 17.5 10.7 17.5 11.25V12.75C17.5 13.3 17.05 13.75 16.5 13.75Z" stroke="#292D32" stroke-width="1.5" stroke-miterlimit="10" stroke-linejoin="round"/>
  <path d="M19.0001 7L18.9701 4H14.5701" stroke="#292D32" stroke-width="1.5" stroke-miterlimit="10" stroke-linecap="round" stroke-linejoin="round"/>
</svg>

<svg viewBox="0 0 24 24" fill="none" xmlns="http://www.w3.org/2000/svg" height="1em" width="1em">
  <path d="M2 22h20" stroke="#292D32" stroke-width="1.5" stroke-miterlimit="10" stroke-linecap="round" stroke-linejoin="round"/>
  <path d="M2.95 22 3 9.97c0-.61.29-1.19.77-1.57l7-5.45a2.01 2.01 0 0 1 2.46 0l7 5.44c.49.38.77.96.77 1.58V22" stroke="#292D32" stroke-width="1.5" stroke-miterlimit="10" stroke-linejoin="round"/>
  <path d="M13 17h-2c-.83 0-1.5.67-1.5 1.5V22h5v-3.5c0-.83-.67-1.5-1.5-1.5Zm-3.5-3.25h-2c-.55 0-1-.45-1-1v-1.5c0-.55.45-1 1-1h2c.55 0 1 .45 1 1v1.5c0 .55-.45 1-1 1Zm7 0h-2c-.55 0-1-.45-1-1v-1.5c0-.55.45-1 1-1h2c.55 0 1 .45 1 1v1.5c0 .55-.45 1-1 1Z" stroke="#292D32" stroke-width="1.5" stroke-miterlimit="10" stroke-linejoin="round"/>
  <path d="m19 7-.03-3h-4.4" stroke="#292D32" stroke-width="1.5" stroke-miterlimit="10" stroke-linecap="round" stroke-linejoin="round"/>
</svg>
